X: 0
T: The Soup Dragon
C: Gordon Duncan
M: 6/8
L: 1/8
K: Bmin
|:"Bm"fBB BAB|eff fed|"A"eee e2d|eff ede|
"Bm"fBB BAB|eff fed|"A"eee "D"f2e|"Bm"dBA B2e:|
|"Bm"faa afd|"D"eff fed|"A"eee e2 d|eff "D"ede|
"Bm"faa afd|"D"eff fed|"A"eee "D"f2e|"G"dBA Bz e|
"Bm"faa afd|"D"eff fed|"A"eee e2 d|eff ede|
"G"fBB BAB|"D"eff fed|"A"eee f2e|"D"dBA "Bm"B3|]